X:1
T:Give Me Thy Heart
T:Give Me Thy Heart
T:William James Kirkpatrick
T:Eliza Edmunds Stites Hewitt, 1898
T:Public Domain, Courtesy of the Cyber Hymnal™
T:Public Domain, Courtesy of the Cyber Hymnal™
C:William James Kirkpatrick
Z:Public Domain,
Z:Courtesy of the Cyber Hymnal™
%%score ( 1 2 ) ( 3 4 )
L:1/8
Q:1/4=90
M:6/8
K:F
V:1 treble 
V:2 treble 
V:3 bass 
V:4 bass 
V:1
 C[CF][CG] [FA]2 [FA]/[FA]/ | [FB]F[FG] [FA]3 | [Ec][EG][FA] [GB]>[^FA][GB] | [Bd][Ac][GB] [FA]3 | %4
w: 1.~“Give Me thy heart,” says the|Fa- ther a- bove—|No gift so pre- cious to|Him as our love;|
w: 2.~“Give Me thy heart,” says the|Sav- ior of men,|Call- ing in merc- y a-|gain and a- gain;|
w: 3.~“Give Me thy heart,” says the|Spir- it di- vine;|“All that thou hast to My|keep- ing re- sign;|
 C[CF][CG] [FA]>[F^G][FA] | [FB]F[FG] [FA]3 | [EG]>[EG][EG] [Ec][CE][CE] | [=B,G][B,F][B,D] C3 || %8
w: Soft- ly He whis- pers wher-|ev- er thou art,|“Grate- ful- ly trust Me and|give Me thy heart.”|
w: “Trust in Me on- ly, I’ll|nev- er de- part—|Have I not died for thee?|Give Me thy heart.”|
w: Grace more a- bound- ing is|Mine to im- part—|Make full sur- re- nder and|give Me thy heart.”|
"^Refrain" [FA][Fc]>[FA] [Fc]3 | [CF][FA]>[CF] [FA]3 | [Fd]>[Fd][Fd] [Fc][EA][DF] | %11
w: |||
w: |||
w: |||
 [DF][DE][DF] [EG]3 | C[CF][CG] [FA]>[F^G][FA] | [FB]F[FG] [FA]3 | [FB][Fc][Fd] [Fc]>[FA]F | %15
w: ||||
w: ||||
w: ||||
 [FA][EA][EG] F6 |] %16
w: |
w: |
w: |
V:2
 C x5 | x F x4 | x6 | x6 | C x5 | x F x4 | x6 | x3 C3 || x6 | x6 | x6 | x6 | C x5 | x F x4 | x5 F | %15
 x3 F6 |] %16
V:3
 [F,A,][F,A,][F,B,] [F,C]2 [F,C]/[F,C]/ | [F,D][F,D][F,_D] [F,C]3 | %2
w: ~ ~ ~ ~ ~ ~|~ ~ ~ ~|
 [C,C][C,C][C,C] [C,C]>[C,C][C,C] | [C,C][D,C][E,C] [F,C]3 | %4
w: ~ ~ ~ ~ ~ ~|~ ~ ~ ~|
 [F,A,][F,A,][F,B,] [F,C]>[F,=B,][F,C] | [F,D][F,D][F,_D] [F,C]3 | [G,C]>[G,C][G,C] G,G,G, | %7
w: ~ ~ ~ ~ ~ ~|~ ~ ~ ~|~ ~ ~ ~ ~ ~|
 [G,,D,][G,,D,][G,,F,] [C,E,]3 || [F,C][F,A,]>[F,C] [F,A,]3 | [F,A,][F,C]>[F,A,] [F,C]3 | %10
w: ~ ~ ~ ~|“Give Me thy heart,|give Me thy heart”—|
 [B,,B,]>[B,,B,][B,,B,] [F,A,][C,A,][D,A,] | [G,,=B,][G,,B,][G,,B,] [C,_B,]3 | %12
w: Hear the soft whis- per, wher-|ev- er thou art;|
 [F,A,][F,A,][F,B,] [F,C]>[F,=B,][F,C] | [F,D][F,D][F,_D] [F,C]3 | %14
w: From this dark world He would|draw thee a- part,|
 [D,B,][C,A,][B,,B,] [C,A,]>[C,C][D,=B,] | [C,C][C,C][C,B,] [F,A,]6 |] %16
w: Speak- ing so ten- der- ly,|“Give Me thy heart.”|
V:4
 x6 | x6 | x6 | x6 | x6 | x6 | x3 G,G,G, | x6 || x6 | x6 | x6 | x6 | x6 | x6 | x6 | x9 |] %16

